<?xml version="1.0" encoding="UTF-8"?>
<map version="1.10" tiledversion="1.11.0" orientation="orthogonal" renderorder="left-up" width="30" height="20" tilewidth="16" tileheight="16" infinite="1" nextlayerid="8" nextobjectid="1">
 <tileset firstgid="1" source="rpg1.tsx"/>
 <layer id="1" name="Kachelebene 1" width="30" height="20">
  <data encoding="csv">
   <chunk x="0" y="-16" width="16" height="16">
0,0,0,0,0,0,0,0,0,0,0,0,0,0,0,0,
0,0,0,0,0,0,0,0,0,0,0,0,0,0,0,0,
0,0,0,0,0,0,0,0,0,0,0,0,0,0,0,0,
67,67,67,67,67,67,67,67,67,67,67,67,67,67,67,67,
67,67,25,25,25,25,25,25,25,25,25,25,25,25,25,25,
67,67,25,25,25,25,25,25,25,25,25,25,25,25,25,25,
67,67,25,25,25,25,25,25,185,186,185,186,185,25,152,152,
67,67,25,25,25,19,19,25,169,186,187,186,169,25,152,153,
67,25,25,25,25,19,19,25,186,167,186,186,187,25,152,153,
67,25,73,73,73,25,25,25,25,25,25,25,25,25,25,25,
67,25,73,73,73,25,25,25,25,25,25,25,25,25,25,25,
67,25,73,73,73,25,25,25,25,25,25,25,25,25,25,25,
85,52,25,73,73,73,25,25,25,25,25,25,25,25,25,25,
67,67,25,25,25,25,25,25,25,25,25,25,25,25,25,25,
67,67,25,25,25,25,25,25,50,86,86,86,86,86,86,86,
67,85,86,86,86,86,86,86,87,67,67,67,67,67,67,67
</chunk>
   <chunk x="16" y="-16" width="16" height="16">
0,0,0,0,0,67,67,67,67,67,67,67,67,67,67,67,
0,0,0,0,0,67,67,67,67,67,67,67,67,67,67,67,
0,0,0,0,0,67,67,67,67,67,67,67,67,67,67,67,
67,67,67,67,67,67,67,67,67,67,67,67,67,67,67,67,
25,25,25,25,25,67,67,67,67,67,67,67,67,67,67,67,
25,25,25,25,25,25,67,67,67,67,67,67,67,67,67,67,
152,25,25,25,25,25,67,67,67,67,67,67,67,67,67,67,
152,25,25,25,25,25,67,67,67,67,67,67,67,67,67,67,
152,25,155,155,155,25,67,67,67,67,67,67,67,67,67,67,
25,25,165,151,165,25,67,67,67,67,67,67,67,67,67,67,
25,25,25,25,25,25,67,67,67,67,67,178,67,67,67,67,
25,25,25,25,25,25,67,67,67,67,67,67,67,67,67,67,
25,25,25,25,25,25,67,67,67,67,67,67,67,67,67,67,
25,25,25,25,25,50,87,67,67,67,67,67,67,67,67,67,
86,86,86,86,86,87,67,67,67,67,67,67,67,67,67,67,
67,67,67,67,67,67,67,67,67,67,67,67,67,67,67,67
</chunk>
   <chunk x="0" y="0" width="16" height="16">
67,67,67,67,67,67,67,67,67,67,67,67,67,67,67,67,
67,67,67,67,67,67,67,67,67,67,67,67,67,67,67,67,
67,67,67,67,67,67,67,67,67,67,67,67,67,67,67,31,
67,67,67,67,67,67,67,67,67,67,67,67,67,67,67,31,
0,0,0,0,0,67,124,124,67,67,67,67,67,67,85,52,
0,0,0,0,0,0,67,124,124,67,67,67,67,67,67,85,
0,0,0,0,0,0,0,67,67,67,67,67,67,67,67,67,
0,0,0,0,0,85,0,67,67,67,67,67,67,67,67,67,
0,0,0,0,0,0,0,0,0,0,67,67,67,67,67,67,
0,0,0,0,0,216,216,0,0,0,0,0,0,0,67,67,
0,0,0,0,0,73,73,73,73,73,73,73,152,0,0,67,
0,0,0,0,0,73,73,73,73,73,73,73,166,0,0,67,
0,0,0,0,73,73,73,73,73,73,73,73,152,0,0,67,
0,0,0,0,73,73,73,73,73,73,73,73,0,0,0,67,
0,0,0,0,166,73,73,73,73,73,73,184,0,0,0,67,
0,0,0,0,0,73,73,73,73,73,73,184,0,0,0,67
</chunk>
   <chunk x="16" y="0" width="16" height="16">
67,67,67,67,67,67,85,86,86,86,87,67,67,67,67,67,
31,31,31,31,31,67,67,67,67,67,67,67,67,67,67,67,
31,31,31,31,31,67,67,67,67,67,67,67,67,67,67,67,
31,31,31,31,31,67,67,67,67,67,67,67,67,67,67,67,
31,31,31,31,31,67,67,67,67,67,67,67,67,67,67,67,
51,51,51,51,51,87,67,67,67,67,67,67,67,67,67,67,
67,67,67,67,67,67,67,67,67,67,67,67,67,67,67,67,
67,67,67,67,67,164,132,146,164,132,67,67,67,67,67,67,
67,67,67,132,147,132,132,132,132,132,67,67,67,67,67,67,
67,67,67,67,132,132,131,67,67,67,67,67,67,67,67,67,
67,67,67,67,67,67,67,67,67,67,67,67,67,67,67,67,
67,67,67,67,67,67,67,67,67,67,67,67,67,67,67,67,
67,67,67,67,67,67,67,67,67,67,67,67,67,67,67,67,
67,67,67,67,67,67,67,67,67,67,67,67,67,67,67,67,
67,67,67,67,67,67,67,67,67,67,67,67,67,67,67,67,
67,67,67,67,67,67,67,67,67,67,67,67,67,67,67,67
</chunk>
  </data>
 </layer>
 <layer id="2" name="Kachelebene 2" width="30" height="20">
  <data encoding="csv">
   <chunk x="0" y="-16" width="16" height="16">
67,67,67,67,67,67,67,67,67,67,67,67,67,67,67,67,
67,67,67,67,67,67,67,67,67,67,67,67,67,67,67,67,
67,67,67,67,67,67,67,67,67,67,67,67,67,67,67,67,
0,8,9,9,9,9,44,44,44,44,44,44,44,44,44,44,
0,24,0,190,191,190,191,189,154,154,154,154,154,0,0,0,
0,24,173,206,173,206,173,1,0,0,0,0,0,0,0,0,
0,24,0,2,3,3,3,4,0,0,0,0,170,0,0,0,
8,45,0,34,7,0,0,21,0,0,0,0,0,0,0,0,
24,56,57,57,39,0,0,21,0,0,0,0,0,0,0,0,
24,0,0,34,35,6,6,1,0,0,0,0,0,0,0,0,
24,0,0,0,0,0,0,0,50,52,0,0,173,0,0,0,
24,0,0,0,0,0,0,0,82,84,0,0,0,0,0,113,
40,13,0,0,0,0,0,0,0,0,0,0,0,0,0,0,
0,24,0,0,0,0,0,0,0,0,0,0,0,0,0,0,
0,24,0,0,0,0,189,0,11,41,41,41,41,41,41,41,
0,40,41,41,41,41,41,41,42,0,0,0,0,0,0,0
</chunk>
   <chunk x="16" y="-16" width="16" height="16">
67,67,67,67,67,0,0,0,0,0,0,0,0,0,0,0,
67,67,67,67,67,0,0,0,0,0,0,0,0,0,0,0,
67,67,67,67,67,0,0,0,0,0,0,0,0,0,0,0,
44,44,44,44,44,10,0,0,0,0,0,0,0,0,0,0,
0,0,0,0,0,43,10,0,0,0,0,0,0,0,0,0,
0,0,0,0,0,0,26,0,0,0,0,0,0,0,0,0,
0,0,0,0,0,0,26,0,0,0,0,0,0,0,0,0,
0,0,0,0,0,0,26,0,0,0,0,0,0,0,0,0,
0,0,0,0,0,0,26,0,0,0,0,0,0,0,0,0,
0,0,0,0,0,0,26,0,0,0,0,0,0,0,0,0,
0,0,0,0,0,0,26,0,0,0,0,0,0,0,0,0,
177,0,0,0,0,0,26,0,0,0,0,0,0,0,0,0,
0,0,0,0,0,0,26,0,0,0,0,0,0,0,0,0,
0,0,0,0,0,11,42,0,0,0,0,0,0,0,0,0,
41,41,41,41,41,42,2,3,3,3,4,0,0,0,0,0,
0,0,0,0,0,0,18,19,19,19,20,0,0,0,0,0
</chunk>
   <chunk x="0" y="0" width="16" height="16">
0,0,0,0,0,0,0,0,178,179,180,0,0,0,0,14,
0,0,0,0,0,0,0,0,194,195,196,0,0,0,14,96,
0,0,0,0,0,0,0,0,210,211,212,0,0,0,30,0,
0,0,0,0,0,0,0,0,0,0,0,0,0,0,30,0,
67,67,67,67,67,124,124,124,124,124,0,0,0,0,46,64,
67,67,67,67,67,124,124,124,124,124,0,0,0,0,0,46,
67,67,67,67,67,124,124,124,124,124,0,0,0,0,0,0,
67,67,67,67,67,124,124,124,124,124,67,67,67,67,67,0,
67,67,67,67,67,67,67,67,67,67,67,67,67,67,67,0,
67,67,67,67,67,67,67,67,67,67,67,67,67,67,67,0,
67,67,67,67,67,53,54,54,54,54,54,55,67,67,67,0,
67,67,67,67,67,0,0,0,0,0,0,71,67,67,67,0,
67,67,67,67,0,0,0,0,0,0,0,71,67,67,67,0,
67,67,67,67,0,0,0,0,0,0,0,0,67,67,67,0,
67,67,67,67,67,0,0,0,0,0,0,67,67,67,67,0,
67,67,67,67,67,67,0,0,0,0,0,67,67,67,67,0
</chunk>
   <chunk x="16" y="0" width="16" height="16">
15,15,15,15,15,16,34,35,35,35,36,0,0,0,0,0,
0,107,108,109,0,32,0,0,0,0,0,0,0,0,0,0,
0,123,124,125,0,32,0,0,0,0,0,0,0,0,0,0,
0,139,140,141,0,32,0,0,0,0,0,0,0,0,0,0,
0,0,0,0,0,32,0,0,0,0,0,0,0,0,0,0,
47,47,47,47,47,48,0,0,0,0,0,0,0,0,0,0,
0,0,0,0,178,179,179,179,179,179,180,0,0,0,0,0,
0,0,178,214,215,0,0,0,0,0,197,0,0,0,0,0,
0,0,199,0,0,0,0,0,0,0,197,0,0,0,0,0,
0,0,210,183,0,0,0,181,182,182,212,0,0,0,0,0,
0,0,0,199,147,147,181,212,0,0,0,0,0,0,0,0,
0,0,0,210,211,211,212,0,0,0,0,0,0,0,0,0,
0,0,0,0,0,0,0,0,0,0,0,0,0,0,0,0,
0,0,0,0,0,0,0,0,0,0,0,0,0,0,0,0,
0,0,0,0,0,0,0,0,0,0,0,0,0,0,0,0,
0,0,0,0,0,0,0,0,0,0,0,0,0,0,0,0
</chunk>
  </data>
 </layer>
 <layer id="3" name="Kachelebene 3" width="30" height="20">
  <data encoding="csv">
   <chunk x="0" y="-16" width="16" height="16">
0,0,0,0,0,0,0,0,0,0,0,0,0,0,0,0,
0,0,0,0,0,0,0,0,0,0,0,0,0,0,0,0,
0,0,0,0,0,0,0,0,0,0,0,0,0,0,0,0,
0,0,0,0,0,0,0,0,0,0,0,0,0,0,0,0,
0,0,190,191,190,191,159,0,0,0,0,0,0,0,0,0,
0,0,206,207,206,207,175,0,154,154,154,154,154,0,156,156,
0,0,0,0,0,0,0,1,170,170,170,170,0,0,172,172,
0,0,0,0,0,0,0,1,0,151,0,184,0,0,0,218,
0,0,0,2,0,0,0,1,0,0,0,0,0,173,167,0,
0,72,0,0,17,17,17,177,17,17,17,17,17,17,17,177,
0,72,0,0,0,74,0,1,0,0,25,25,25,173,0,33,
0,72,0,0,0,91,58,1,0,0,0,0,0,0,189,0,
0,88,61,0,0,0,74,99,98,25,0,175,191,0,160,160,
0,0,88,89,89,89,90,113,114,0,0,206,207,0,176,176,
0,0,0,0,0,0,0,0,0,0,0,0,0,0,0,0,
0,0,0,0,0,0,145,0,0,0,0,0,0,0,0,0
</chunk>
   <chunk x="16" y="-16" width="16" height="16">
0,0,0,0,0,0,0,0,0,0,0,0,0,0,0,0,
0,0,0,0,0,0,0,0,0,0,0,0,0,0,0,0,
0,0,0,0,0,0,0,0,0,0,0,0,0,0,0,0,
0,0,0,0,0,0,0,0,2,3,3,3,4,0,0,0,
0,0,160,160,0,0,0,2,39,19,19,19,20,0,0,0,
156,0,176,176,0,0,0,18,19,19,19,19,20,0,0,0,
172,0,0,0,0,0,0,18,19,19,19,19,20,0,0,0,
0,0,155,155,155,0,0,18,19,19,19,19,20,0,0,0,
0,0,0,0,0,0,0,18,19,19,19,19,20,0,0,0,
17,98,171,171,171,0,0,18,19,19,19,19,20,0,0,0,
25,1,150,167,150,0,0,18,19,19,19,19,20,0,0,0,
0,177,17,81,17,0,0,18,19,19,19,19,20,0,0,0,
0,0,0,0,0,0,0,18,19,19,19,19,20,0,0,0,
0,0,0,0,0,50,0,18,19,19,19,19,20,0,0,0,
0,0,0,0,0,0,0,39,19,19,19,19,20,0,0,0,
0,0,0,0,0,0,0,0,0,19,19,19,20,0,0,0
</chunk>
   <chunk x="0" y="0" width="16" height="16">
0,0,0,0,0,0,145,0,0,0,0,0,0,0,0,0,
0,0,0,0,0,0,145,0,0,0,0,0,0,0,0,0,
0,0,0,0,0,0,145,0,0,0,0,0,0,0,0,0,
0,0,0,0,0,0,145,0,0,0,0,0,0,0,0,0,
0,0,0,0,0,53,54,54,54,55,0,0,0,0,0,0,
0,0,0,0,0,69,0,0,0,71,0,0,0,0,0,0,
0,0,0,0,0,69,0,0,0,71,0,0,0,0,0,0,
0,0,0,0,0,85,86,86,86,87,0,0,0,0,0,0,
0,0,0,0,0,0,0,0,0,0,0,0,0,0,0,0,
0,0,0,0,0,0,0,0,0,0,0,0,0,0,0,0,
0,0,0,0,0,0,0,0,0,0,0,0,0,0,0,0,
0,0,0,0,0,69,0,0,0,0,0,0,0,0,0,0,
0,0,0,0,53,84,0,0,0,0,0,0,0,0,0,0,
0,0,0,0,85,52,0,0,0,0,50,87,0,0,0,0,
0,0,0,0,0,85,52,0,0,0,66,0,0,0,0,0,
0,0,0,0,0,0,85,86,86,86,87,0,0,0,0,0
</chunk>
   <chunk x="16" y="0" width="16" height="16">
0,0,0,0,0,0,0,0,0,19,19,19,20,0,0,0,
0,0,0,0,0,0,0,0,0,19,19,19,20,0,0,0,
0,0,0,0,0,0,0,0,0,19,19,19,20,0,0,0,
0,0,0,0,0,0,0,0,0,0,0,0,0,0,0,0,
0,0,0,0,0,0,0,0,0,0,0,0,0,0,0,0,
0,0,0,0,0,0,0,0,0,0,0,0,0,0,0,0,
0,0,0,0,0,0,0,0,0,0,0,0,0,0,0,0,
0,0,0,0,0,0,0,0,0,0,0,0,0,0,0,0,
0,0,0,0,0,0,0,0,0,0,0,0,0,0,0,0,
0,0,0,0,0,0,0,0,0,0,0,0,0,0,0,0,
0,0,0,0,0,0,0,0,0,0,0,0,0,0,0,0,
0,0,0,0,0,0,0,0,0,0,0,0,0,0,0,0,
0,0,0,0,0,0,0,0,0,0,0,0,0,0,0,0,
0,0,0,0,0,0,0,0,0,0,0,0,0,0,0,0,
0,0,0,0,0,0,0,0,0,0,0,0,0,0,0,0,
0,0,0,0,0,0,0,0,0,0,0,0,0,0,0,0
</chunk>
  </data>
 </layer>
 <layer id="5" name="3,5" width="30" height="20" offsetx="8" offsety="-8">
  <data encoding="csv">
   <chunk x="0" y="-16" width="16" height="16">
0,0,0,0,0,0,0,0,0,0,0,0,0,0,0,0,
0,0,0,0,0,0,0,0,0,0,0,0,0,0,0,0,
0,0,0,0,0,0,0,0,0,0,0,0,0,0,0,0,
0,0,0,0,0,0,0,0,0,0,0,0,0,0,0,0,
0,0,0,190,191,0,0,0,0,0,0,0,0,0,0,0,
0,0,190,191,207,0,0,0,0,0,0,0,0,0,0,0,
0,0,206,207,0,0,0,0,0,0,0,0,0,0,0,0,
0,0,0,0,0,0,0,0,0,0,0,0,0,0,0,0,
0,0,0,0,0,0,0,0,0,0,0,0,0,0,0,0,
0,0,0,0,0,0,0,160,0,0,0,0,0,0,0,0,
0,0,0,0,0,157,0,176,0,0,0,0,0,0,0,0,
0,0,0,0,0,0,0,192,0,0,158,159,0,0,0,0,
0,0,0,0,0,0,0,0,0,173,174,207,191,0,160,157,
0,0,0,0,0,0,0,0,0,0,0,206,207,0,176,0,
0,0,0,0,0,0,0,0,0,0,0,0,0,0,0,0,
0,0,0,0,0,0,0,0,0,0,0,0,0,0,0,0
</chunk>
   <chunk x="16" y="-16" width="16" height="16">
0,0,0,0,0,0,0,0,0,0,0,0,0,0,0,0,
0,0,0,0,0,0,0,0,0,0,0,0,0,0,0,0,
0,0,0,0,0,0,0,0,0,0,0,0,0,0,0,0,
0,0,0,0,0,0,0,0,0,0,0,0,0,0,0,0,
0,0,0,0,0,0,0,0,0,0,0,0,0,0,0,0,
0,160,160,0,0,0,0,0,0,0,0,0,0,0,0,0,
0,176,176,25,0,0,0,0,0,0,0,0,0,0,0,0,
0,0,0,0,0,0,0,0,0,0,0,0,0,0,0,0,
0,0,0,0,0,0,0,0,0,0,0,0,0,0,0,0,
0,0,0,0,0,0,0,0,0,0,0,0,0,0,0,0,
0,0,0,0,0,189,0,0,0,0,0,0,0,0,0,0,
0,0,0,0,0,0,0,0,0,0,0,0,0,0,0,0,
1,0,0,0,0,0,0,0,0,0,0,0,0,0,0,0,
1,0,189,0,0,0,0,0,0,0,0,0,0,0,0,0,
1,0,0,0,0,0,0,0,0,0,0,0,0,0,0,0,
145,0,0,0,0,0,0,0,0,0,0,0,0,0,0,0
</chunk>
   <chunk x="16" y="0" width="16" height="16">
145,0,0,0,0,0,0,0,0,0,0,0,0,0,0,0,
0,0,0,0,0,0,0,0,0,0,0,0,0,0,0,0,
0,0,0,0,0,0,0,0,0,0,0,0,0,0,0,0,
0,0,0,0,0,0,0,0,0,0,0,0,0,0,0,0,
0,0,0,0,0,0,0,0,0,0,0,0,0,0,0,0,
0,0,0,0,0,0,0,0,0,0,0,0,0,0,0,0,
0,0,0,0,0,0,0,0,0,0,0,0,0,0,0,0,
0,0,0,0,0,0,0,0,0,0,0,0,0,0,0,0,
0,0,0,0,0,0,0,0,0,0,0,0,0,0,0,0,
0,0,0,0,0,0,0,0,0,0,0,0,0,0,0,0,
0,0,0,0,0,0,0,0,0,0,0,0,0,0,0,0,
0,0,0,0,0,0,0,0,0,0,0,0,0,0,0,0,
0,0,0,0,0,0,0,0,0,0,0,0,0,0,0,0,
0,0,0,0,0,0,0,0,0,0,0,0,0,0,0,0,
0,0,0,0,0,0,0,0,0,0,0,0,0,0,0,0,
0,0,0,0,0,0,0,0,0,0,0,0,0,0,0,0
</chunk>
  </data>
 </layer>
 <layer id="7" name="3,5 2" width="30" height="20" offsetx="8" offsety="-8">
  <data encoding="csv">
   <chunk x="0" y="-16" width="16" height="16">
0,0,0,0,0,0,0,0,0,0,0,0,0,0,0,0,
0,0,0,0,0,0,0,0,0,0,0,0,0,0,0,0,
0,0,0,0,0,0,0,0,0,0,0,0,0,0,0,0,
0,0,0,0,0,0,0,0,0,0,0,0,0,0,0,0,
0,0,0,0,0,0,0,0,0,0,0,0,0,0,0,0,
0,0,0,0,0,0,0,0,0,0,0,0,0,0,0,0,
0,0,0,0,0,0,0,0,0,0,0,0,0,0,0,0,
0,0,0,0,0,0,0,0,0,0,0,0,0,0,0,0,
0,0,0,0,0,0,0,0,0,0,0,0,0,0,0,0,
0,0,0,0,0,0,0,0,0,0,0,0,0,0,0,0,
0,0,0,0,0,157,0,0,0,0,0,0,157,0,0,0,
0,0,0,0,0,0,0,0,0,0,0,0,0,0,0,0,
0,0,0,0,0,0,0,0,0,0,0,190,0,0,0,0,
0,0,0,0,0,0,0,0,0,0,0,0,0,0,0,0,
0,0,0,0,0,0,0,0,0,0,0,0,0,0,0,0,
0,0,0,0,0,0,0,0,0,0,0,0,0,0,0,0
</chunk>
  </data>
 </layer>
 <layer id="6" name="Kachelebene 5" width="30" height="20">
  <data encoding="csv">
   <chunk x="0" y="-16" width="16" height="16">
0,0,0,0,0,0,0,0,0,0,0,0,0,0,0,0,
0,0,0,0,0,0,0,0,0,0,0,0,0,0,0,0,
0,0,0,0,0,0,0,0,0,0,0,0,0,0,0,0,
0,0,0,0,0,0,0,0,0,0,0,0,0,0,0,0,
0,0,0,0,0,0,0,0,0,0,0,0,0,0,156,156,
0,0,0,0,0,0,0,0,0,0,0,0,0,0,0,0,
0,0,0,0,0,0,0,0,0,0,0,0,0,0,0,0,
0,0,0,0,0,0,0,0,0,0,0,188,0,0,202,151,
0,0,0,0,0,0,0,0,0,0,0,0,0,0,153,167,
0,0,0,0,0,0,0,0,0,0,0,0,0,0,0,0,
0,0,0,0,0,0,0,0,0,0,0,0,0,0,0,0,
0,0,0,0,0,0,0,0,0,0,158,159,0,0,0,0,
0,0,0,0,0,0,0,0,0,0,174,190,0,0,0,0,
0,0,0,0,0,0,0,0,0,0,0,0,0,0,0,0,
0,0,0,0,0,0,0,0,0,0,0,0,0,0,0,0,
0,0,0,0,0,0,0,0,0,0,0,0,0,0,0,0
</chunk>
   <chunk x="16" y="-16" width="16" height="16">
0,0,0,0,0,0,0,0,0,0,0,0,0,0,0,0,
0,0,0,0,0,0,0,0,0,0,0,0,0,0,0,0,
0,0,0,0,0,0,0,0,0,0,0,0,0,0,0,0,
0,0,0,0,0,0,0,0,0,0,0,0,0,0,0,0,
156,0,0,0,0,0,0,0,0,0,0,0,0,0,0,0,
0,0,0,0,0,0,0,0,0,0,0,0,0,0,0,0,
0,0,0,0,0,0,0,0,0,0,0,0,0,0,0,0,
202,0,0,0,0,0,0,0,0,0,0,0,0,0,0,0,
0,0,0,0,0,0,0,0,0,0,0,0,0,0,0,0,
0,0,0,0,0,0,0,0,0,0,0,0,0,0,0,0,
0,0,0,0,0,0,0,0,0,0,0,0,0,0,0,0,
0,0,0,0,0,17,129,129,17,17,17,17,0,0,0,0,
0,0,0,0,0,0,0,0,0,0,0,0,0,0,0,0,
0,0,0,0,0,0,0,0,0,0,0,0,0,0,0,0,
0,0,0,0,0,0,0,0,0,0,0,0,0,0,0,0,
0,0,0,0,0,0,0,0,0,0,0,0,0,0,0,0
</chunk>
   <chunk x="0" y="0" width="16" height="16">
0,0,0,0,0,0,0,0,0,0,0,0,0,0,0,0,
0,0,0,0,0,0,0,0,0,0,0,0,0,0,0,0,
0,0,0,0,0,0,0,0,0,0,0,0,0,0,0,0,
0,0,0,0,0,0,0,0,0,0,0,0,0,0,0,0,
0,0,0,0,0,0,145,0,0,0,0,0,0,0,0,0,
0,0,0,0,0,0,0,104,106,0,0,0,0,0,0,0,
0,0,0,0,0,0,0,136,138,0,0,0,0,0,0,0,
0,0,0,0,0,0,0,145,0,0,0,0,0,0,0,0,
0,0,0,0,0,0,0,145,0,0,0,0,0,0,0,0,
0,0,0,0,0,0,0,145,0,0,0,0,0,0,0,0,
0,0,0,0,0,0,0,145,0,0,0,0,0,0,0,0,
0,0,0,0,0,0,0,0,50,52,0,0,0,0,0,0,
0,0,0,0,0,0,0,0,82,84,0,0,0,0,0,0,
0,0,0,0,0,0,0,0,0,0,0,0,0,0,0,0,
0,0,0,0,0,0,0,0,0,0,0,0,0,0,0,0,
0,0,0,0,0,0,0,0,0,0,0,0,0,0,0,0
</chunk>
   <chunk x="16" y="0" width="16" height="16">
0,0,0,0,0,0,0,0,0,52,0,0,0,0,0,0,
0,0,0,0,0,0,0,0,0,69,0,0,0,0,0,0,
0,0,0,0,0,0,0,0,0,85,86,86,87,0,0,0,
0,0,0,0,0,0,0,0,0,0,0,0,0,0,0,0,
0,0,0,0,0,0,0,0,0,0,0,0,0,0,0,0,
0,0,0,0,0,0,0,0,0,0,0,0,0,0,0,0,
0,0,0,0,0,0,0,0,0,0,0,0,0,0,0,0,
0,0,0,0,0,0,0,0,0,0,0,0,0,0,0,0,
0,0,0,0,0,0,0,0,0,0,0,0,0,0,0,0,
0,0,0,0,0,0,0,0,0,0,0,0,0,0,0,0,
0,0,0,0,0,0,0,0,0,0,0,0,0,0,0,0,
0,0,0,0,0,0,0,0,0,0,0,0,0,0,0,0,
0,0,0,0,0,0,0,0,0,0,0,0,0,0,0,0,
0,0,0,0,0,0,0,0,0,0,0,0,0,0,0,0,
0,0,0,0,0,0,0,0,0,0,0,0,0,0,0,0,
0,0,0,0,0,0,0,0,0,0,0,0,0,0,0,0
</chunk>
  </data>
 </layer>
 <objectgroup id="4" name="Objektebene 1"/>
</map>
