<?xml version="1.0" encoding="UTF-8"?>
<map version="1.10" tiledversion="1.11.0" orientation="orthogonal" renderorder="right-down" width="30" height="20" tilewidth="16" tileheight="16" infinite="0" nextlayerid="4" nextobjectid="1">
 <tileset firstgid="1" source="rpg1.tsx"/>
 <layer id="1" name="Kachelebene 1" width="30" height="20">
  <data encoding="csv">
19,19,19,19,19,19,19,19,19,19,19,25,25,25,67,67,67,67,67,73,73,73,73,73,73,73,73,73,73,73,
19,19,19,19,19,19,19,19,19,19,19,25,25,25,67,67,67,67,67,73,73,73,73,73,73,73,73,73,73,73,
19,19,19,19,19,19,19,19,19,19,25,25,25,25,67,67,67,67,67,73,73,73,73,73,73,73,73,73,73,73,
19,19,19,19,19,25,25,25,25,25,25,25,25,25,25,67,67,67,67,73,73,73,73,73,73,73,73,73,73,73,
19,19,19,19,25,25,25,25,25,25,25,25,25,25,25,67,67,67,67,73,73,73,73,73,73,73,73,73,73,73,
19,19,19,19,25,25,25,25,25,25,25,25,25,25,25,67,67,67,67,67,67,67,67,67,67,67,67,67,67,67,
19,19,19,19,25,25,25,25,25,25,25,25,25,25,67,67,67,67,67,132,130,130,132,132,132,132,73,73,73,73,
19,19,19,19,25,25,25,25,25,25,25,25,67,67,67,67,67,67,130,130,164,163,130,132,132,132,73,73,73,73,
19,19,19,19,25,25,25,25,25,25,25,67,67,67,67,67,67,130,146,164,130,147,130,132,132,132,67,31,73,73,
25,25,25,25,25,25,25,25,25,67,67,67,67,67,67,67,67,147,163,130,130,130,163,163,132,132,67,67,67,67,
25,25,25,25,25,25,25,25,25,67,67,67,67,67,67,67,163,130,130,130,147,130,163,163,163,132,67,31,31,31,
25,25,25,25,25,25,25,25,25,67,67,67,67,67,67,67,130,130,131,130,130,163,130,130,163,163,67,31,31,31,
25,25,25,25,25,25,25,67,67,67,67,67,67,67,67,130,164,147,130,164,130,130,130,163,130,163,67,31,31,31,
25,25,25,25,25,25,25,67,67,67,67,67,67,67,67,130,130,130,130,131,163,130,163,130,163,132,67,31,31,31,
25,25,25,25,25,25,67,67,67,67,67,67,67,67,67,131,147,163,130,130,130,130,163,163,130,132,67,31,31,31,
25,25,25,25,25,67,67,67,67,67,67,67,67,67,67,130,130,130,130,130,163,130,130,130,147,147,67,31,31,31,
67,67,67,67,67,67,67,67,67,67,67,67,67,67,67,67,67,67,67,67,67,67,67,67,67,67,67,31,31,31,
67,67,67,67,67,67,67,67,67,67,67,67,67,67,67,67,67,67,67,67,67,67,67,67,67,67,67,31,31,31,
67,67,67,67,67,67,67,67,67,67,67,67,67,67,67,67,67,67,67,67,67,67,31,67,67,31,31,31,31,31,
67,67,67,67,67,67,67,67,67,67,67,67,67,67,67,67,67,67,67,67,67,67,67,67,31,31,31,31,31,31
</data>
 </layer>
 <layer id="2" name="Kachelebene 2" width="30" height="20">
  <data encoding="csv">
0,0,0,0,0,0,0,0,0,0,0,21,0,66,0,0,0,0,72,0,0,0,0,0,0,0,0,0,0,0,
0,0,0,0,0,0,0,0,0,0,0,21,0,66,0,0,0,56,93,0,0,0,0,0,0,0,0,0,0,0,
0,0,0,0,0,0,0,0,0,0,5,36,0,66,0,0,0,88,61,0,0,0,0,0,0,0,0,0,0,0,
0,0,0,0,0,5,6,6,6,6,36,0,0,82,55,0,0,0,72,0,0,0,0,0,0,0,0,0,0,0,
0,0,0,0,5,36,0,0,0,0,0,0,0,0,66,0,0,0,72,0,0,0,0,0,0,0,0,0,0,0,
0,0,0,0,21,0,0,0,0,0,0,0,0,50,87,0,0,0,88,89,89,89,89,89,89,89,89,89,89,89,
0,0,0,0,21,0,0,0,0,0,0,50,51,87,0,0,0,0,0,101,102,102,102,102,102,103,67,67,67,67,
0,0,0,0,21,0,0,0,0,0,50,87,0,0,0,0,0,0,101,84,0,0,0,0,0,119,67,67,67,67,
0,0,0,0,21,0,0,0,50,51,87,0,0,0,0,0,0,101,84,0,0,0,0,0,0,119,67,67,67,67,
35,35,35,35,36,0,0,0,66,0,0,0,0,0,0,0,0,69,0,0,132,0,0,0,0,119,14,15,15,15,
0,0,0,0,0,0,0,0,66,0,0,0,0,0,0,0,101,84,0,132,0,0,132,0,0,119,30,0,0,0,
0,0,0,0,0,0,50,51,87,0,0,0,0,0,0,0,69,132,0,0,0,0,0,0,0,119,30,0,0,0,
0,0,0,0,0,0,66,0,0,0,0,0,0,0,0,101,84,0,132,0,0,0,132,163,0,119,30,0,0,0,
0,0,0,0,0,50,87,0,0,0,0,0,0,0,0,69,0,0,0,0,0,132,0,132,0,119,30,0,0,0,
0,0,0,0,50,87,0,0,0,0,0,0,0,0,0,69,0,0,132,132,0,0,0,0,0,119,30,0,0,0,
86,86,86,86,87,0,0,0,0,0,0,0,0,0,0,133,134,134,134,134,134,134,134,134,134,135,30,0,0,0,
0,0,0,0,0,0,0,0,0,0,0,0,0,0,0,0,0,0,0,0,0,0,0,0,67,67,30,0,0,0,
0,0,0,0,0,0,0,0,0,0,0,0,0,0,0,0,0,0,0,0,0,0,67,67,14,15,96,107,108,109,
0,0,0,0,0,0,0,0,0,0,0,0,0,0,0,0,0,0,0,0,0,0,67,14,96,0,0,123,124,125,
0,0,0,0,0,0,0,0,0,0,0,0,0,0,0,0,0,0,0,0,0,0,0,30,0,0,0,139,140,141
</data>
 </layer>
 <layer id="3" name="Kachelebene 3" width="30" height="20">
  <data encoding="csv">
0,0,0,0,0,0,0,0,0,0,0,0,0,0,0,0,0,0,0,0,0,0,0,0,0,0,0,0,0,0,
0,0,0,0,0,0,0,0,17,17,17,17,17,129,129,129,129,129,129,17,17,17,17,17,17,17,17,98,0,0,
0,0,0,0,0,0,0,0,0,0,0,0,0,0,0,0,0,0,0,0,0,0,0,0,0,0,0,1,0,0,
0,0,0,0,0,0,0,0,0,0,0,0,0,0,0,0,0,0,0,0,0,0,0,0,0,0,0,1,0,0,
0,0,0,0,0,110,111,111,111,111,112,0,0,0,0,0,0,0,0,0,0,0,0,0,0,0,0,1,0,0,
0,0,0,0,0,126,127,127,127,127,128,0,0,0,0,0,0,0,0,0,0,0,0,0,0,0,0,145,0,0,
0,0,0,0,0,142,143,143,143,143,144,0,0,0,0,0,0,0,0,0,0,0,0,0,0,0,0,145,0,0,
0,0,0,0,0,0,0,0,0,0,0,0,0,0,0,0,0,0,0,0,0,0,0,0,0,0,0,145,0,0,
0,0,0,0,0,0,157,0,0,0,0,0,0,0,0,0,0,0,0,0,0,0,0,0,0,0,0,145,0,0,
0,0,0,0,0,0,0,0,0,0,0,0,0,0,0,0,0,0,0,0,0,0,0,0,0,0,0,145,0,0,
0,158,159,160,0,0,0,0,0,0,0,0,0,0,0,0,0,0,0,0,0,0,0,0,0,0,0,1,0,0,
0,174,175,176,0,0,0,0,0,0,0,0,0,0,0,0,0,0,0,0,0,0,0,0,0,0,0,1,0,0,
0,0,0,0,0,0,0,0,0,0,0,0,0,0,0,0,0,0,0,0,0,0,0,0,0,0,0,1,0,0,
0,0,0,0,0,0,0,0,0,0,0,0,0,0,0,0,0,0,0,0,0,0,0,0,0,0,0,0,0,0,
0,0,0,0,0,0,0,0,0,0,0,0,0,0,0,0,0,0,0,0,0,0,0,0,0,0,0,0,0,0,
0,0,0,0,0,0,0,0,0,0,0,0,0,0,0,0,0,0,0,0,0,0,0,0,0,0,0,0,0,0,
0,0,0,0,0,0,0,0,0,0,0,0,0,0,0,0,0,0,0,0,0,0,0,0,0,0,0,0,0,0,
0,0,0,0,0,0,0,0,0,0,0,0,0,0,0,0,0,0,0,0,0,0,0,0,0,0,0,0,0,0,
0,0,0,0,0,0,0,0,0,0,0,0,0,0,0,0,0,0,0,0,0,0,0,0,0,0,0,0,0,0,
0,0,0,0,0,0,0,0,0,0,0,0,0,0,0,0,0,0,0,0,0,0,0,0,0,0,0,0,0,0
</data>
 </layer>
</map>
